X:1
T:#
T:Christe Redemptor omnium, conserva - Palestrina
%%score [ 1 2 { 3 | 4 } 5 ]
L:1/8
Q:1/4=200
M:none
K:F
V:1 treble nm="Soprano" snm="S"
V:2 treble nm="Alto" snm="A"
V:3 treble-8 nm="Tenor" snm="T"
V:4 treble 
V:5 bass nm="Bass" snm="B"
V:1
 x24 x2 || %1
w: |
"^Attr. Rabanus Maurus\n(776-856)""^Christe Redemptor omnium, conserva""^Office hymn for the feast of All Saints""^G. P. da Palestrina\n(1526-94)"[Q:1/4=200] z8 (F8 | %2
w: Con\-|
 A8) c8 | d8 d8 | c8 (d8 | e8 f8- | f8) e8 | d4 f8 e4- | e4 d8 ^c4 | d16 | z4 G4 G4 ^F4 | %11
w: * ser-|va tu-|os fa\-||* mu-|los, tu- os|* fa- mu-|los,|Be- a- tae|
 (G2 A2 B2 c2 d2 e2 f4- | f4 e4 d4 d4 | c4 G4 A4 (F4- | F2 G2 A2 B2 c2 d2 c4- | c2 B2 A8) G4 | %16
w: sem\- * * * * * *|* per Vir- gi-|nis, sem- per Vir\-||* * * gi-|
 A6 B2 c8) | z16 | F8 G8 | A4 c8 B4 | A4 A4 G8 | c8 d8 | e8 (f8- | f4 _e2 d2 !courtesy!_e8) | %24
w: nis * *||Pla- ca-|tus san- ctis|pre- ci- bus,|pla- ca-|tus san\-||
 d4 (_e6 d2 d4- | d4 c4 d4 (f2 e2 | d2 c2 B2 A2 G8) | ^F4 G8 F4 | G16 || z16 | z16 | z16 | F16 | %33
w: ctis pre\- * *|* ci- bus, san\- *||ctis pre- ci-|bus.||||Va-|
 G8 A8 | c8) (c8 | B8) (A8- | G8) (A8 | B6 AG A4) A4 | G8 z8 | (F8 A8) | (c8 d8- | d4) d4 d8- | %42
w: tes ae\-|* ter\-|* ni|* iu\-|* * * * di-|cis|A\- *|po\- *|* sto- li\-|
 d8 c8 | (d6 e2 f4 e4- | e2 d2 d8) ^c4 | d16- | d16 | z16 | (d8 _e8) | (d8 c8) | =B8 c8- | c8 (A8 | %52
w: * que|Do\- * * *|* * * mi-|ni,|||Sup\- *|pli\- *|ci- ter|* ex\-|
 F8) (G8 | A8 B8- | B8) B8 | A16 | z16 | F16 | G8 (A8 | c8) (c8 | B8 (A8 | G8) A8- | A8 B8- | %63
w: * po\-||* sci-|mus||Sal-|va- ri|* ve\-|* stris|* pre\-||
 B4 A2 G2 A4) A4 | G16 || z16 | z8 F8 | G8 (A8 | c8 (c8- | c4 B4 A8) | G16- | G8 A8 | %72
w: * * * * ci-|bus.||Cho-|ri san\-|* cta\-||rum|* vir\-|
 B6 AG F2 G2 A4- | A4 G8) ^F4 | G16 | F16 | (A16 | c16) | d8 d8 | (c8 d8- | d4 e4) (f8 | %81
w: |* * gi-|num,|Mo-|na\-||cho- rum-|que *|* * o\-|
 e4 d8) ^c4 | d16 | z16 | z16 | z8 (d8 | _e8) (d8 | c8 =B8 | c8 (A8 | F8) G4 A4 | B8 A8) | %91
w: * * mni-|um,|||Si\-|* mul|* cum|san- ctis|* o- mni-|bus, *|
 z4 G8 (c4- | c2 B2 A2 G2 A4) B4- | B4 A8 G4 | A16 | F8 G8 | A4 c8 B4 | A4 G4 (A2 B2 c4- | %98
w: cum san\-|* * * * * ctis|* o- mni-|bus,|Con- sor-|tes Chri- sti|fa- ci- te, * *|
 c4 B4 A8 | G8 z8 | z8 c8 | d8 (e6 f2 | g8) f4 e4 | d6 c2 B2 A2 B4- | B2 A2 G8) ^F4 | G16 || z16 | %107
w: ||con-|sor- tes *|* Chri- sti|fa\- * * * *|* * * ci-|te.||
 F16 | G8 (A8 | c8) (c8 | B8) A8- | A8 (G8 | A8) (B8 | A4 G8) ^F4 | G8 F8 | (A8 c8) | d8 d8 | %117
w: Glo-|ri- a|* Pa\-|* tri|* in\-|* ge\-|* * ni-|to, E-|ius\- *|que U-|
 (c4 d4 e4 f4 | e4) d8 ^c4 | d8 A8 | A12 A4 | B4 A4 G4 B4 | A4 G4 G4 d4 | c4 d4 e4 e4 | %124
w: ni\- * * *|* ge- ni-|to, e-|ius- que|U- ni- ge- ni-|to, e- ius- que|U- ni- ge- ni-|
 (f2 e2 d2 c2 =B2 A2 B4 | c8 d8) | z16 | z16 | z8 (d8 | _e8) (d8 | c8) =B8 | c8 (A8 | F8 G4 A4 | %133
w: to, * * * * * *||||U\-|* na|* cum|San- cto|* Spi- ri-|
 (B8 A8) | z8 F8- | F8 G8 | A8 c8) | (c8 B8) | (A8 G8) | (A8 B8) | A8 G8 | z4 c4 c4 =B4 | %142
w: tu, *|In|* sem-|pi\- *|ter\- *|na *|sae\- *|cu- la,|in sem- pi-|
 c4 c4 (c6 B2 | A4 G4 (A2 G2 F2 E2 | D8) z4 d4 | d4 c4[Q:1/4=197] d6[Q:1/4=194] c2 | %146
w: ter- na sae\- *|* cu- la, * * *|* in|sem- pi- ter\- *|
[Q:1/4=192] B4)[Q:1/4=188] G4[Q:1/4=185] (B6[Q:1/4=182] c2 |[Q:1/4=177] d12)[Q:1/4=171] A4 | %148
w: * na sae\- *|* cu-|
[Q:1/4=170] =B16 |] %149
w: la.|
V:2
 x24 x2 || (B,8 D8) | F12 E4 | (D2 E2 F2 E2 D2 C2 B,4) | A,4 A8 D4 | G8 z4 B4- | B4 A4 A8- | %7
w: |Con\- *|ser- va|tu\- * * * * * *|os fa- mu-|los, tu\-|* os fa\-|
 A4 A4 A8- | A16 | z8 (A8 | B8) (A8 | G8) F8 | G16 | (E8 C8) | D8 E8 | (F8 D6 E2 | F8) C8 | %17
w: * mu- los,||Be\-|* a\-|* tae|sem-|per *|Vir- gi-|nis * *|* Pla-|
 D8 E4 (G4- | G2 F2 F8) E4 | (F8 D6 E2 | F4 E2 D2 E2 C2 D4 | E4 F6 E2 D4- | D4) ^C4 D8 | G16 | %24
w: ca- tus san\-|* * * ctis|pre\- * *|||* ci- bus,|pla-|
 G8 ^F8 | G8 =F4 (A2 G2 | F2 E2 D2 C2 B,4 C4 | D12) D4 | D16 || C16 | D8 E4 (G4- | G2 F2 F8) E4 | %32
w: ca- tus|san- ctis pre\- *||* ci-|bus.|Va-|tes ae- ter\-|* * * ni|
 (D6 C2 D2 E2 F4- | F4 E4 (F8- | F4 E2 D2 E4) C4 | D4 E4 F8- | F4 E2 D2 E4) F4 | (D2 EF G8) ^F4 | %38
w: iu\- * * * *|* di- cis,|* * * * va-|tes ae- ter\-|* * * * ni|iu\- * * * di-|
 G16 | z4 D4 F6 F2 | C4 (c8 B2 A2 | B4) G4 B6 B2 | F4 (B6 A2 A4) | (D2 E2 F2 G2 A6 G2 | F4 G4) E8 | %45
w: cis|A- po- sto-|li- que * *|* a- po- sto-|li- que * *|Do\- * * * * *|* * mi-|
 D8 z8 | (A8 B8) | (A8 G8) | ^F8 G8 | z4 D4 (_E2 D2 E2 F2 | G4) G4 C4 F4 | F4 E4 (F2 E2 D2 C2 | %52
w: ni,|Sup\- *|pli\- *|ci- ter|ex- po\- * * *|* sci- mus, sup-|pli- ci- ter * * *|
 D8 C8) | z4 (F6 D2 G4- | G4) F8 E4 | F8 z4 F4 | E4 C4 D4 E4 | (F2 E2 D2 C2 B,4) D4 | C8 z4 F4 | %59
w: |ex\- * *|* po- sci-|mus Sal-|va- ri ve- stris|pre\- * * * * ci-|bus, sal-|
 E4 A4 (G6 E2 | F4 G8 F4- | F4 E4 F4 F4 | E4 C4 D4 E4 | (F4 G8) ^F4 | G16 || z16 | C8 D8 | E8 F8) | %68
w: va- ri ve\- *|* stris pre\-|* ci- bus, sal-|va- ri ve- stris|pre\- * ci-|bus.||Cho- ri|san\- *|
 (F12 E4 | D8) C4 (F4- | F4 E2 D2 E8- | E4) D4 D8 | (B,6 C2 D8- | D8) D8 | D8 z4 D4- | D4 C4 D8 | %76
w: cta\- *|* rum vir\-||* gi- num,|vir\- * *|* gi-|num, Mo\-|* na- cho-|
 A,4 D4 (C6 B,2 | A,4) G,4 A,8 | B,8 (D8 | F8) F8 | G8 A8 | A12 A4 | F16 | (A8 B8) | (A8 G8) | %85
w: rum- que o\- *|* mni- um,|mo- na\-|* cho-|rum- que|o- mni-|um,|Si\- *|mul *|
 F8 G8 | G4 B4 A4 B4 | (G6 A2 F4) G4 | E8 C4 (C4- | C2 =B,2 B,2 A,2 C8) | F16 | D8 E8 | F12 D4 | %93
w: cum san-|ctis, si- mul cum|san\- * * ctis|o- mni- bus,||si-|mul cum|san- ctis|
 D12 D4 | C8 C8 | D8 E4 G4- | G4 (F4 E4 D2 E2 | F2 D2 E4) F6 F2 | D8 (F8 | D4 (G4 F2 E2 A4- | %100
w: o- mni-|bus, Con-|sor- tes Chri\-|* sti * * *|* * * fa- ci-|te, con\-|* sor\- * * *|
 A4 G2 F2 G6 A2 | B8 c8- | c4) B4 A6 G2 | F2 E2 F4 G6 FE | D4) _E4 D6 D2 | D16 || F8 E4 F4 | %107
w: ||* tes Chri\- *||* sti fa- ci-|te.|Glo- ri- a|
 D8 C4 D4 | (B,2 C2 D2 E2 F2 E2 F2 G2 | A8) G4 (A4 | G6 F2 E2 D2 C4- | C4 F,4 G,8) | z4 C4 F8- | %113
w: Pa- tri in-|ge\- * * * * * * *|* ni- to,|||in- ge\-|
 F4 _E4 D8 | z8 z4 D4 | E4 F4 G4 A4 | (B4 A2 G2 A4 B4) | A4 D4 G4 F4 | A12 A4 | F16 | z4 D4 E4 F4 | %121
w: * ni- to,|E-|ius- que U- ni-|ge\- * * * *|ni- to, U- ni-|ge- ni-|to,|e- ius- que|
 G4 A4 (B2 A2 G2 F2 | E4 D4) G,4 A,4- | A,4 A4 A4 A4- | A4 F4 G8- | G8 z8 | (A8 B8) | (A8 G8- | %128
w: U- ni- ge\- * * *|* * ni- to,|* U- ni- ge\-|* ni- to,||U\- *|na *|
 G4) F4 A4 =B4 | c4 C4 (D2 E2 F2 G2 | A8) G8- | G8 F4 C4 | A,4 (B,2 C2 D2 E2 F4) | G4 G4 E8 | %134
w: * cum San- cto|Spi- ri- tu, * * *|* u\-|* na cum|San- cto * * * *|Spi- ri- tu|
 z4 D4 D4 C4 | D4 F4 F4 E4 | F8 z8 | z8 z4 G4 | G4 ^F4 G4 B4- | B4 (A6 G2 G4- | G4) ^F4 (G8- | %141
w: In sem- pi-|ter- na sae- cu-|la,|in|sem- pi- ter- na|* sae\- * *|* cu- la,|
 G4 A4 =F8) | z8 z4 F4 | F4 E4 F4 A4 | (G8 A6) A2 | D4 G4 G4 ^F4 | G4 G,4 (G8- | G4 ^F2 E2 F4) F4 | %148
w: |in|sem- pi- ter- na|sae\- * cu-|la, in sem- pi-|ter- na sae\-|* * * * cu-|
 G16 |] %149
w: la.|
V:3
 F2 G2 A2 c2 c2 B2 A2 G2 A2 B2 A2 G4 || z16 | z16 | z16 | (F8 A8) | c8 d8 | d8 c8 | (d8 e8 | %8
w: Chri- ste Re\- * dem\- * ptor * o\- * mni- um||||Con\- *|ser- va|tu- os|fa\- *|
 f8) e8 | d16 | z8 (d8 | _e8) (d8 | c8 =B8 | c8 (A8 | F8) G8 | A8 B8 | A6 G2 A2 B2 c4- | %17
w: * mu-|los,|Be\-|* a\-|* tae|sem- per|* Vir-|gi- nis||
 c4 =B4 c4) c4 | d8 c8- | c8 z8 | z16 | z8 F8 | G8 (A8 | c8) (c8 | B8) (A8 | G8 (A8 | B12 A2 G2 | %27
w: * * * Pla-|ca- tus,|||pla-|ca- tus|* san\-|* ctis|* pre\-||
 A4) B4 A8 | G16) || z8 F8- | F8 G8 | (A8 c8) | B12 A4 | B4 c4 (F6 G2 | A6 B2 c8) | G8 A4 B4 | %36
w: * ci- bus.||Va\-|* tes|ae\- *|ter- ni|iu- di- cis, *||va- tes ae-|
 (c6 B2 c4) d4 | B4 G4 d8 | z8 G8 | B6 B2 F4 (f4- | f2 e2 e4) d4 d4 | G8 z4 G4 | B6 B2 F4 (f4- | %43
w: ter\- * * ni|iu- di- cis|A-|po- sto- li- que|* * * Do- mi-|ni, a-|po- sto- li- que|
 f2 e2 d8 ^c4 | d4) G4 (A6 GA | B2 c2 d2 e2 f2 d2 g4- | g2 ^fe f4) g8 | (d8 _e8) | (d8 c8) | %49
w: |* Do- mi\- * *||* * * * ni,|Sup\- *|pli\- *|
 =B8 c8 | z4 G4 (A2 G2 A2 B2 | c4) c4 F8 | z4 f4 f4 e4 | (f2 e2 d2 c2 B4) G4 | (B6 A2 G4) G4 | %55
w: ci- ter|ex- po\- * * *|* sci- mus,|sup- pli- ci-|ter * * * * ex-|po\- * * sci-|
 F8 z4 F4 | G4 A4 B4 c4 | (d2 c2 B2 c2 d2 e2 f4- | f4) e4 f8 | z4 f4 e4 c4 | d4 e4 (f2 e2 d2 c2 | %61
w: mus Sal-|va- ri ve- stris|pre\- * * * * * *|* ci- bus,|sal- va- ri|ve- stris pre\- * * *|
 B4) c4 F8 | A8 G8 | d8 d8 | G16 || z16 | z16 | z16 | z8 F8 | G8 (A8 | c8) (c8- | c4 B4 A8) | %72
w: * ci- bus,|ve- stris|pre- ci-|bus.||||Cho-|ri san\-|* cta\-||
 (G8 A8) | B8 A8 | G8 z4 B4- | B4 A4 B8 | F4 f4 e4 f4 | c8 z4 f4- | f4 d4 f8 | F8 z4 f4- | %80
w: rum *|vir- gi-|num, Mo\-|* na- cho-|rum- que o- mni-|um, mo\-|* na- cho-|rum, mo\-|
 f4 e4 d4 c4- | c4 f4 e4 e4 | d8 z4 d4 | e4 f4 g4 d4 | (f4 e2 d2 e4 d4- | d4 c8) =B4 | %86
w: * na- cho- rum\-|* que o- mni-|um, Si-|mul cum san- ctis|o\- * * * *|* * mni-|
 c4 g4 ^f4 g4 | (c2 d2 e2 f2 d8) | c8 z8 | (d8 _e8) | (d8 c8) | =B8 c8 | (A8 F8) | G4 A4 (B8 | %94
w: bus, si- mul cum|san\- * * * *|ctis,|si\- *|mul *|cum san-|ctis *|o- mni- bus,|
 A8) z8 | z16 | z16 | z8 F8 | G8 A4 c4- | c4 =B4 (c6 d2 | e4 f8 e4 | f4) g4 c8 | z4 d4 d4 ^c4 | %103
w: |||Con-|sor- tes Chri\-|* sti fa\- *||* ci- te,|con- sor- tes|
 d8 (d6 =c2 | B4 c4) A4 A4 | G16 || z16 | z16 | z16 | z16 | z8 z4 f4 | e4 f4 d8 | %112
w: Chri- sti *|* * fa- ci-|te.|||||Glo-|ri- a Pa-|
 c4 (f2 e2 d2 c2 d4) | (c6 B2 A4) A4 | G4 G4 A4 B4 | c4 d4 e4 f4 | (B2 c2 d2 e2 f2 d2 g4- | %117
w: tri in\- * * * *|ge\- * * ni-|to, E- ius- que|U- ni- ge- ni-|to, * * * * * *|
 g2 f2 f4) e4 d4 | ^c4 d4 A8 | z8 F8 | (A8 c8) | d8 d8 | c4 (d4 e4 f4 | e4 d8) ^c4 | d8 z8 | %125
w: * * * U- ni-|ge- ni- to,|e-|ius\- *|que U-|ni- ge\- * *|* * ni-|to,|
 c8 G4 g4 | e4 f6 ed e4 | f12 e4 | d8 z8 | c8 F8- | F4 f4 d8 | e8 (f6 ed | c4 d4 B4) c4 | d8 z8 | %134
w: U- na cum|San- cto * * *|Spi- ri-|tu,|u- na|* cum San-|cto Spi\- * *|* * * ri-|tu,|
 z4 B4 B4 A4 | B4 d4 c4 c4 | F4 f4 f4 g4 | f4 e4 g4 d4 | (d6 cd _e4 d2 c2 | d16- | d16) | %141
w: In sem- pi-|ter- na sae- cu-|la, in sem- pi-|ter- na sae- cu-|la, * * * * *|||
 z8 z4 f4 | f4 e4 f4 (F2 G2 | A2 B2 c4) F4 F4 | G8 d8 | B4 G4 d8- | d4 _e4 d8- | d8 d8 | d16 |] %149
w: in|sem- pi- ter- na *|* * * sae- cu-|la, in|sem- pi- ter\-|* na sae\-|* cu-|la.|
V:4
 x26 || x16 | x16 | x16 | x16 | x16 | x16 | x16 | x16 | x16 | x16 | x16 | x16 | x16 | x16 | x16 | %16
w: ||||||||||||||||
 x16 | x16 | x16 | x16 | x16 | x16 | x16 | x16 | x16 | x16 | x16 | x16 | x16 || x16 | x16 | x16 | %32
w: ||||||||||||||||
 x16 | x16 | x16 | x16 | x16 | x16 | x16 | x16 | x16 | x16 | x16 | x16 | x16 | x16 | x16 | x16 | %48
w: ||||||||||||||||
 x16 | x16 | x16 | x16 | x16 | x16 | x16 | x16 | x16 | x16 | x16 | x16 | x16 | x16 | x16 | x16 | %64
w: ||||||||||||||||
 x16 || x16 | x16 | x16 | x16 | x16 | x16 | x16 | x16 | x16 | x16 | x16 | x16 | x16 | x16 | x16 | %80
w: ||||||||||||||||
 x16 | x16 | x16 | x16 | x16 | x16 | x16 | x16 | x16 | x16 | x16 | x16 | x16 | x16 | x16 | x16 | %96
w: ||||||||||||||||
 x16 | x16 | x16 | x16 | x16 | x16 | x16 | x16 | x16 | x16 || z16 | z16 | z16 | F8 E4 F4 | %110
w: |||||||||||||Glo- ri- a|
 D8 C4 (F,2 G,2 | A,2 B,2 C8 =B,4) | C6 C2 _B,8 | z8 z4 D4 | B,4 C4 D8 | z16 | z8 z4 G,4 | %117
w: Pa- tri in\- *||ge- ni- to,|in-|ge- ni- to,||E-|
 A,4 B,4 C4 D4 | E4 F4 (E8 | D8) z4 D4 | C4 F4 E4 A,4 | z8 z4 G,4 | A,4 B,4 C4 D4 | E4 F4 (E8 | %124
w: ius- que U- ni-|ge- ni- to,|* U-|ni- ge- ni- to,|e-|ius- que U- ni-|ge- ni- to,|
 D8) (D8 | _E8) D8 | (C8 B,8 | C16 | (A,8 F,8) | G,4 A,4 B,8 | A,8) z8 | C8 F,4 F4- | F4 D8 C4 | %133
w: * U\-|* na|* cum|San-|cto *|Spi- ri- tu,||u- na cum|* San- cto|
 (B,2 C2 D8) ^C4 | D8 z8 | z16 | z4 A,4 A,4 G,4 | A,4 C4 D4 G,4 | A,8 z8 | z4 D4 B,4 G,4 | %140
w: Spi\- * * ri-|tu,||in sem- pi-|ter- na sae- cu-|la,|in sem- pi-|
 A,4 A,4 =B,4 B,4 | C8 F,8 | G,8 (A,8 | (C8 C8 | B,8) A,8 | G,8) (A,8 | B,12 A,2 G,2 | A,8) A,8 | %148
w: ter- na sae- cu-|la, in|sem- pi\-|* ter\-|* na|* sae\-||* cu-|
 G,16 |] %149
w: la.|
V:5
 x24 x2 || z16 | z16 | (B,,8 D,8) | (F,6 E,2 D,8) | C,8 (B,,6 C,2 | D,2 E,2 F,2 G,2 A,8) | %7
w: |||Con\- *|ser\- * *|va tu\- *||
 D,4 D,8 ^C,4 | (D,2 E,2 F,2 G,2 A,8) | z4 G,4 G,4 ^F,4 | G,8 D,8 | z16 | C,8 G,8 | C,8 (F,6 E,2 | %14
w: os fa- mu-|los, * * * *|Be- a- tae|sem- per,||be- a-|tae sem\- *|
 D,8) C,8 | (F,8 G,8 | F,12) E,4 | (D,8 C,8) | z16 | F,8 G,8 | A,4 C8 B,4 | %21
w: * per|Vir\- *|* gi-|nis *||Pla- ca-|tus san- ctis|
 (A,2 G,2 F,2 E,2 D,4) F,4 | (E,8 D,8) | z8 C,8 | G,8 D,8 | _E,8 D,8- | D,8 (_E,8 | D,12) D,4 | %28
w: pre\- * * * * ci-|bus, *|pla-|ca- tus|san- ctis|* pre\-|* ci-|
 G,16 || z16 | z16 | z16 | z16 | z16 | z16 | z16 | z16 | z16 | z16 | z16 | z16 | z16 | z16 | z16 | %44
w: bus.||||||||||||||||
 z16 | z16 | z16 | z16 | z16 | z16 | z16 | z16 | z16 | z16 | z16 | z16 | z16 | z16 | z16 | z16 | %60
w: ||||||||||||||||
 z16 | z16 | z16 | z16 | z16 || F,8 G,8 | A,8 B,4 D4 | C4 C4 F,8- | F,8 z8 | z8 F,8 | %70
w: |||||Cho- ri|san- cta- rum|vir- gi- num,||cho-|
 C,4 C,4 (C,6 D,2 | E,2 F,2 G,8) ^F,4 | G,4 _E,4 (D,8 | B,,6 C,2 D,8 | G,16) | z16 | z8 z4 F,4- | %77
w: ri san- cta\- *|* * * rum|vir- gi- num,||||Mo\-|
 F,4 E,4 F,8 | B,,8 z4 B,4- | B,4 A,4 B,8 | G,4 C,4 (F,6 G,2 | A,4 D,4 A,8 | D,8 D8 | %83
w: * na- cho-|rum, mo\-|* na- cho-|rum- que o\- *|* mni- um,|* Si-|
 C4 D4 (G,2 A,2 B,2 C2 | D4) A,4 C4 B,4 | A,8 G,8) | z16 | z8 z4 G,4 | A,4 E,4 (F,6 E,2 | %89
w: mul cum san\- * * *|* ctis o- mni-|bus, *||si-|mul cum san\- *|
 D,8) C,8 | (_B,,2 C,2 D,2 E,2 F,2 G,2 A,2 F,2 | G,4) G,4 C,8 | F,8 D,4 B,,4 | B,4 F,4 G,8 | %94
w: * ctis|o\- * * * * * * *|* mni- bus,|cum san- ctis|o- mni- bus,|
 z4 (F,6 G,2 A,4) | B,4 D4 C4 B,4 | A,4 A,4 G,8 | z16 | z8 F,8 | G,8 (A,8 | C8) (C8 | B,8) (A,8 | %102
w: con\- * *|sor- tes Chri- sti|fa- ci- te,||con-|sor- tes|* Chri\-|* sti|
 G,8) (A,8 | B,6 A,2 G,2 F,2 G,4- | G,4) C,4 (D,8 | G,16) || z16 | B,8 A,4 B,4 | G,8 F,4 F,4 | %109
w: * fa\-||* ci- te.|||Glo- ri- a|Pa- tri in-|
 (F,2 G,2 A,2 B,2 C4) F,4 | (G,8 A,6 B,2 | C8) z8 | F,8 B,,8 | C,8 (D,8 | _E,8 D,8) | z16 | z16 | %117
w: ge\- * * * * ni-|to, * *||in- ge-|ni- to,||||
 z16 | z16 | B,,8 (D,6 E,2 | F,4 D,4 A,4 A,4 | G,4 ^F,4 G,8 | z4 G,4 E,4 D,4 | A,4 D,4 A,4 A,4 | %124
w: ||E- ius\- *|* que U- ni-|ge- ni- to,|e- ius- que|U- ni- ge- ni-|
 D,8 G,8 | C,4 C4 B,4 G,4 | A,6 G,F, G,4) G,4 | F,8 C,8 | D,8 D,8 | C,4 C,4 (B,,2 C,2 D,2 E,2 | %130
w: to, U-|na cum San- cto|Spi\- * * * ri-|tu, cum|San- cto|Spi- ri- tu, * * *|
 F,8) G,8 | C,4 C8 F,4- | F,4 B,4 B,4 A,4 | G,8 A,8 | (B,6 A,G, F,8) | z16 | z4 F,4 F,4 E,4 | %137
w: * u-|na, u- na|* cum San- cto|Spi- ri-|tu, * * *||in sem- pi-|
 F,4 A,4 G,4 G,4 | D,8 z4 G,4 | G,4 ^F,4 G,8 | D,8 (G,6 F,2 | E,4 F,4 D,8) | C,8 F,8 | z16 | %144
w: ter- na sae- cu-|la, in|sem- pi- ter-|na sae\- *||cu- la,||
 z4 G,4 G,4 ^F,4 | G,4 _E,4 (D,8 | G,8) G,8 | (D,16 | G,16) |] %149
w: in sem- pi-|ter- na sae\-|* cu-|la.||

